packages/radix-icons/twoTone/15/multiple-variants.svg

<svg width="15" height="15" fill="none" xmlns="http://www.w3.org/2000/svg">
  <path
    fill-rule="evenodd"
    clip-rule="evenodd"
    d="M7.49971 1.02502L5.02484 3.4999L7.49971 5.97477L9.97459 3.4999L7.49971 1.02502ZM11.4997 5.02502L9.02484 7.4999L11.4997 9.97477L13.9746 7.4999L11.4997 5.02502ZM5.02484 11.4999L7.49971 9.02502L9.97459 11.4999L7.49971 13.9748L5.02484 11.4999ZM3.49972 5.02517L1.02484 7.50005L3.49972 9.97492L5.97459 7.50005L3.49972 5.02517Z"
    fill="currentColor"
    opacity=".2"
  />
  <path
    fill-rule="evenodd"
    clip-rule="evenodd"
    d="M4.67129 3.14634C4.47603 3.34161 4.47603 3.65819 4.67129 3.85345L7.14616 6.32833C7.34142 6.52359 7.65801 6.52359 7.85327 6.32833L10.3281 3.85345C10.5234 3.65819 10.5234 3.34161 10.3281 3.14634L7.85327 0.671471C7.65801 0.476209 7.34142 0.476209 7.14616 0.671471L4.67129 3.14634ZM7.49971 5.26766L5.73195 3.4999L7.49971 1.73213L9.26748 3.4999L7.49971 5.26766ZM8.67129 7.14634C8.47603 7.34161 8.47603 7.65819 8.67129 7.85345L11.1462 10.3283C11.3414 10.5236 11.658 10.5236 11.8533 10.3283L14.3281 7.85345C14.5234 7.65819 14.5234 7.34161 14.3281 7.14634L11.8533 4.67147C11.658 4.47621 11.3414 4.47621 11.1462 4.67147L8.67129 7.14634ZM11.4997 9.26766L9.73195 7.4999L11.4997 5.73213L13.2675 7.4999L11.4997 9.26766ZM4.67129 11.8535C4.47603 11.6582 4.47603 11.3416 4.67129 11.1463L7.14616 8.67147C7.34142 8.47621 7.65801 8.47621 7.85327 8.67147L10.3281 11.1463C10.5234 11.3416 10.5234 11.6582 10.3281 11.8535L7.85327 14.3283C7.65801 14.5236 7.34142 14.5236 7.14616 14.3283L4.67129 11.8535ZM5.73195 11.4999L7.49971 13.2677L9.26748 11.4999L7.49971 9.73213L5.73195 11.4999ZM0.671288 7.14649C0.476026 7.34175 0.476026 7.65834 0.671288 7.8536L3.14616 10.3285C3.34142 10.5237 3.65801 10.5237 3.85327 10.3285L6.32814 7.8536C6.5234 7.65834 6.5234 7.34175 6.32814 7.14649L3.85327 4.67162C3.65801 4.47636 3.34142 4.47636 3.14616 4.67162L0.671288 7.14649ZM3.49972 9.26781L1.73195 7.50005L3.49972 5.73228L5.26748 7.50005L3.49972 9.26781Z"
    fill="currentColor"
  />
</svg>

<svg width="15" height="15" fill="none" xmlns="http://www.w3.org/2000/svg">
  <path
    fill-rule="evenodd"
    clip-rule="evenodd"
    d="M7.5 1.025L5.025 3.5 7.5 5.975 9.975 3.5 7.5 1.025zm4 4L9.025 7.5 11.5 9.975 13.975 7.5 11.5 5.025zM5.025 11.5L7.5 9.025 9.975 11.5 7.5 13.975 5.025 11.5zM3.5 5.025L1.025 7.5 3.5 9.975 5.975 7.5 3.5 5.025z"
    fill="currentColor"
    opacity=".2"
  />
  <path
    fill-rule="evenodd"
    clip-rule="evenodd"
    d="M4.671 3.146a.5.5 0 000 .707l2.475 2.475a.5.5 0 00.707 0l2.475-2.475a.5.5 0 000-.707L7.853.671a.5.5 0 00-.707 0L4.671 3.146zM7.5 5.268L5.732 3.5 7.5 1.732 9.267 3.5 7.5 5.268zM8.67 7.146a.5.5 0 000 .707l2.475 2.475a.5.5 0 00.707 0l2.475-2.475a.5.5 0 000-.707l-2.475-2.475a.5.5 0 00-.707 0L8.671 7.146zM11.5 9.268L9.732 7.5 11.5 5.732 13.268 7.5 11.5 9.268zM4.67 11.853a.5.5 0 010-.707l2.475-2.475a.5.5 0 01.707 0l2.475 2.475a.5.5 0 010 .707l-2.475 2.475a.5.5 0 01-.707 0l-2.475-2.474zm1.061-.353L7.5 13.268 9.267 11.5 7.5 9.732 5.732 11.5zM.672 7.146a.5.5 0 000 .708l2.474 2.474a.5.5 0 00.707 0l2.475-2.474a.5.5 0 000-.708L3.853 4.672a.5.5 0 00-.707 0L.671 7.146zM3.5 9.268L1.732 7.5 3.5 5.732 5.267 7.5 3.5 9.268z"
    fill="currentColor"
  />
</svg>
